assets/location-marker-fill.svg

<svg xmlns="http://www.w3.org/2000/svg" fill="none" viewBox="0 0 17 27">
  <path fill="#2A2238" fill-rule="evenodd" d="M8.74945 26.6234C5.67896 21.9986 0 13.0671 0 8.5 0 3.80557 3.52942 0 8.5 0 13.4706 0 17 3.80557 17 8.5c0 4.5671-5.2057 13.4986-8.25055 18.1234ZM13.5 8c0 2.7614-2.2386 5-5 5-2.76147 0-5-2.2386-5-5 0-2.76143 2.23853-5 5-5 2.7614 0 5 2.23857 5 5Zm-2 0c0 1.65686-1.3431 3-3 3-1.65686 0-3-1.34314-3-3s1.34314-3 3-3c1.6569 0 3 1.34314 3 3Z" clip-rule="evenodd"/>
</svg>

<svg width="17" height="27" viewBox="0 0 17 27" fill="none" xmlns="http://www.w3.org/2000/svg">
<path fill-rule="evenodd" clip-rule="evenodd" d="M8.74945 26.6234C5.67896 21.9986 0 13.0671 0 8.5C0 3.80557 3.52942 0 8.5 0C13.4706 0 17 3.80557 17 8.5C17 13.0671 11.7943 21.9986 8.74945 26.6234ZM13.5 8C13.5 10.7614 11.2614 13 8.5 13C5.73853 13 3.5 10.7614 3.5 8C3.5 5.23857 5.73853 3 8.5 3C11.2614 3 13.5 5.23857 13.5 8ZM11.5 8C11.5 9.65686 10.1569 11 8.5 11C6.84314 11 5.5 9.65686 5.5 8C5.5 6.34314 6.84314 5 8.5 5C10.1569 5 11.5 6.34314 11.5 8Z" fill="#2A2238"/>
</svg>
